images/quotes.svg

<svg width="35" height="29" viewBox="0 0 35 29" fill="none" xmlns="http://www.w3.org/2000/svg">
<path d="M32.8 1.22L32.156 0.0239959C30.868 0.882662 29.4573 1.864 27.924 2.968C26.3907 4.01066 24.98 5.23733 23.692 6.648C22.404 8.05867 21.3 9.684 20.38 11.524C19.5213 13.364 19.092 15.48 19.092 17.872C19.092 21.368 19.92 24.0667 21.576 25.968C23.232 27.8693 25.2253 28.82 27.556 28.82C28.3533 28.82 29.1507 28.6973 29.948 28.452C30.8067 28.2067 31.5733 27.8387 32.248 27.348C32.9227 26.796 33.4747 26.1213 33.904 25.324C34.3333 24.4653 34.548 23.4533 34.548 22.288C34.548 21.1227 34.3333 20.1413 33.904 19.344C33.4747 18.4853 32.9533 17.8107 32.34 17.32C31.7267 16.768 31.052 16.3693 30.316 16.124C29.58 15.8787 28.8747 15.756 28.2 15.756C27.5253 15.756 26.8507 15.8173 26.176 15.94C25.5013 16.0627 24.888 16.308 24.336 16.676C24.0293 16.3693 23.7227 15.9093 23.416 15.296C23.1093 14.6827 22.956 13.8853 22.956 12.904C22.956 10.696 23.8453 8.73333 25.624 7.016C27.4027 5.23733 29.7947 3.30533 32.8 1.22ZM13.756 1.22L13.112 0.0239959C11.824 0.882662 10.4133 1.864 8.88 2.968C7.34667 4.01066 5.936 5.23733 4.648 6.648C3.36 8.05867 2.256 9.684 1.336 11.524C0.477334 13.364 0.0480003 15.48 0.0480003 17.872C0.0480003 21.368 0.876 24.0667 2.532 25.968C4.188 27.8693 6.18133 28.82 8.512 28.82C9.30933 28.82 10.1067 28.6973 10.904 28.452C11.7627 28.2067 12.5293 27.8387 13.204 27.348C13.8787 26.796 14.4307 26.1213 14.86 25.324C15.2893 24.4653 15.504 23.4533 15.504 22.288C15.504 21.1227 15.2893 20.1413 14.86 19.344C14.4307 18.4853 13.9093 17.8107 13.296 17.32C12.6827 16.768 12.008 16.3693 11.272 16.124C10.536 15.8787 9.83067 15.756 9.156 15.756C8.48133 15.756 7.80667 15.8173 7.132 15.94C6.45733 16.0627 5.844 16.308 5.292 16.676C4.98533 16.3693 4.67867 15.9093 4.372 15.296C4.06533 14.6827 3.912 13.8853 3.912 12.904C3.912 10.696 4.80133 8.73333 6.58 7.016C8.35867 5.23733 10.7507 3.30533 13.756 1.22Z" fill="black"/>
</svg>

<svg width="35" height="29" fill="none" xmlns="http://www.w3.org/2000/svg"><path d="M32.8 1.22L32.156.024c-1.288.859-2.699 1.84-4.232 2.944a23.981 23.981 0 00-4.232 3.68c-1.288 1.41-2.392 3.036-3.312 4.876-.859 1.84-1.288 3.956-1.288 6.348 0 3.496.828 6.195 2.484 8.096 1.656 1.901 3.65 2.852 5.98 2.852.797 0 1.595-.123 2.392-.368a7.266 7.266 0 002.3-1.104 6.667 6.667 0 001.656-2.024c.43-.859.644-1.87.644-3.036 0-1.165-.215-2.147-.644-2.944-.43-.859-.95-1.533-1.564-2.024a5.703 5.703 0 00-2.024-1.196 6.686 6.686 0 00-2.116-.368c-.675 0-1.35.061-2.024.184a4.84 4.84 0 00-1.84.736c-.307-.307-.613-.767-.92-1.38-.307-.613-.46-1.41-.46-2.392 0-2.208.89-4.17 2.668-5.888 1.779-1.779 4.17-3.71 7.176-5.796zm-19.044 0L13.112.024c-1.288.859-2.699 1.84-4.232 2.944a23.98 23.98 0 00-4.232 3.68c-1.288 1.41-2.392 3.036-3.312 4.876C.477 13.364.048 15.48.048 17.872c0 3.496.828 6.195 2.484 8.096 1.656 1.901 3.65 2.852 5.98 2.852.797 0 1.595-.123 2.392-.368a7.266 7.266 0 002.3-1.104 6.667 6.667 0 001.656-2.024c.43-.859.644-1.87.644-3.036 0-1.165-.215-2.147-.644-2.944-.43-.859-.95-1.533-1.564-2.024a5.703 5.703 0 00-2.024-1.196 6.687 6.687 0 00-2.116-.368c-.675 0-1.35.061-2.024.184a4.84 4.84 0 00-1.84.736c-.307-.307-.613-.767-.92-1.38-.307-.613-.46-1.41-.46-2.392 0-2.208.89-4.17 2.668-5.888 1.779-1.779 4.17-3.71 7.176-5.796z" fill="#000"/></svg>
